X: 29
T:Spanish Ladies
M:4/4
L:1/4
Q:120
R:March
K:D
"D"FAA B/2c/2|ddd e/2f/2|"G"g/2f/2 e "D"f/2e/2 d|"Em"BA"A"A2|
"D"FAA B/2c/2|ddd e/2f/2|"G"g/2f/2 e "D"f/2e/2 d|"Em"BA"A"A2::
"D"faaf|"G"edd>e|"D"faaf|"G"ed "A"e2|
"D"faaf|"G"ed"D"de/2f/2|"G"g/2f/2 e "D"f/2e/2 d|"Em"BA"A"A2:|
